X:1
T:Miss Barbara Stewart, West Park
T:Miss Barbara Stewart, West Park
T:William Marshall
C:William Marshall
%%score { ( 1 2 ) 3 }
L:1/8
M:2/2
K:C
V:1 treble 
V:2 treble 
V:3 bass 
V:1
{B} c2 (G>c) E<C G2 | d2 (A>d) F<D A2 | [Cc]2 (G>c) E<CG>E | D<d-d>e (f>e)(d>c) | %4
{B} c2 (G>c) E<C G2 | d2 (A>d) F<D A2 | [Cc]2 (G>c) E<CG>E | D<d-d>e (f>e)(d>c) |] c<ge<g c<g e2 | %9
 f<ad>e f>ga>f | e<cg>e (a>g)(f>e) | d<BG>B c2 c2 | e<gc<g e>gc>e | f<ad>e f>ga>f | e>fg>e a<fd>c | %15
 B<GA>B c2 c2 |] %16
V:2
 C2 x4 C2 | D4 x2 F2 | x8 | x8 | C2 x4 C2 | D4 x2 F2 | x8 | x8 |] x8 | x8 | x8 | x8 | x8 | x8 | %14
 x8 | x8 |] %16
V:3
 [C,,C,]2 [C,,C,]2 [C,,C,,]2 [E,,E,]2 | [F,,F,]2 [F,,F,]2 [D,,D,]2 [D,,D,]2 | %2
 [E,,E,]2 [E,,E,]2 [C,,C,]2 [C,,C,]2 | [G,,G,]2 [G,D]2 [G,B,D]2 [G,B,D]2 | %4
 [C,,C,]2 [C,,C,]2 [C,,C,,]2 [E,,E,]2 | [F,,F,]2 [F,,F,]2 [D,,D,]2 [D,,D,]2 | %6
 [E,,E,]2 [E,,E,]2 [C,,C,]2 [C,,C,]2 | [G,,G,]2 [G,D]2 [G,B,D]2 [G,B,D]2 |] %8
 [C,,C,]2 [C,,C,]2 [C,,C,]2 [C,,C,]2 | [G,DF]2 [G,DF]2 [G,DF]2 [G,DF]2 | %10
 [C,,C,]2 [C,,C,]2 [C,,C,]2 [C,,C,]2 | [G,DF]2 [G,DF]2 [CEG]2 [CEG]2 | %12
 [C,,C,]2 [C,,C,]2 [C,,C,]2 [C,,C,]2 | [G,DF]2 [G,DF]2 [G,DF]2 [G,DF]2 | %14
 [C,C]2 [C,C]2 [F,,F,]2 [F,,F,]2 | [G,,G,]2 [G,,G,]2 [C,C]2 [C,C]2 |] %16

